img/sprite/delete.svg

<svg width="32" height="32" viewBox="0 0 32 32" fill="none" xmlns="http://www.w3.org/2000/svg">
<g opacity="0.8">
<path d="M16.0013 2.33301C18.312 2.33301 20.2003 4.14161 20.3278 6.42044L20.3346 6.66634H27.3346C27.8869 6.66634 28.3346 7.11406 28.3346 7.66634C28.3346 8.1726 27.9584 8.591 27.4703 8.65721L27.3346 8.66634H26.2733L24.5665 26.0253C24.3895 27.824 22.9325 29.213 21.1515 29.3256L20.9174 29.333H11.0852C9.27776 29.333 7.75284 28.019 7.46641 26.2575L7.43615 26.0253L5.72797 8.66634H4.66797C4.16171 8.66634 3.74331 8.29014 3.6771 7.80204L3.66797 7.66634C3.66797 7.16008 4.04417 6.74169 4.53227 6.67547L4.66797 6.66634H11.668C11.668 4.27311 13.6081 2.33301 16.0013 2.33301ZM24.264 8.66634H7.7373L9.42655 25.8295C9.50487 26.6258 10.1351 27.2454 10.9158 27.3245L11.0852 27.333H20.9174C21.7175 27.333 22.3959 26.7665 22.551 25.9973L22.5761 25.8295L24.264 8.66634ZM18.3346 12.333C18.8409 12.333 19.2593 12.7092 19.3255 13.1973L19.3346 13.333V22.6663C19.3346 23.2186 18.8869 23.6663 18.3346 23.6663C17.8284 23.6663 17.41 23.2901 17.3438 22.802L17.3346 22.6663V13.333C17.3346 12.7807 17.7823 12.333 18.3346 12.333ZM13.668 12.333C14.1742 12.333 14.5926 12.7092 14.6588 13.1973L14.668 13.333V22.6663C14.668 23.2186 14.2203 23.6663 13.668 23.6663C13.1617 23.6663 12.7433 23.2901 12.6771 22.802L12.668 22.6663V13.333C12.668 12.7807 13.1157 12.333 13.668 12.333ZM16.0013 4.33301C14.7771 4.33301 13.773 5.27582 13.6757 6.47497L13.668 6.66634H18.3346C18.3346 5.37768 17.29 4.33301 16.0013 4.33301Z" fill="currentColor"/>
</g>
</svg>

<svg xmlns="http://www.w3.org/2000/svg" viewBox="0 0 32 32"><path d="M16,2.33a4.34,4.34,0,0,1,4.33,4.09v.25h7a1,1,0,0,1,1,1,1,1,0,0,1-.86,1h-1.2L24.57,26a3.69,3.69,0,0,1-3.42,3.3H11.09a3.66,3.66,0,0,1-3.62-3.07l0-.23L5.73,8.67H4.67a1,1,0,0,1-1-.87V7.67a1,1,0,0,1,.86-1h7.14A4.33,4.33,0,0,1,16,2.33Zm8.26,6.34H7.74L9.43,25.83a1.64,1.64,0,0,0,1.49,1.49h10A1.65,1.65,0,0,0,22.55,26l0-.17Zm-5.93,3.66a1,1,0,0,1,1,.87v9.47a1,1,0,0,1-1,1,1,1,0,0,1-1-.87V13.33A1,1,0,0,1,18.33,12.33Zm-4.66,0a1,1,0,0,1,1,.87v9.47a1,1,0,0,1-2,.13V13.33A1,1,0,0,1,13.67,12.33Zm2.33-8a2.33,2.33,0,0,0-2.32,2.14v.2h4.66A2.33,2.33,0,0,0,16,4.33Z" fill="currentColor"/></svg>
